assets/svg/2615.svg

<svg xmlns="http://www.w3.org/2000/svg" viewBox="0 0 64 64" enable-background="new 0 0 64 64"><g transform="translate(0 4)"><path d="m63.5 35.18c.041-3.777.121-6.551-2.971-6.581-3.099-.034-11.8 2.948-11.838 6.734-.036 3.777 8.603 6.929 11.704 6.959 3.092.034 3.067-3.322 3.105-7.112m-12.788.208c.017-1.77 7.605-5.02 9.05-5 1.44.017 2.287 3.169 2.27 4.926-.017 1.77-.893 5.193-2.335 5.181-1.443-.018-9-3.349-8.982-5.105" fill="#bbbbbc"/><g><path d="m60.33 50.12c0 4.487-13.506 8.125-30.16 8.125-16.658 0-30.16-3.638-30.16-8.125 0-4.483 13.505-8.12 30.16-8.12 16.659 0 30.17 3.637 30.17 8.12" fill="#e7e6e6"/><path d="m54.3 50.12c0 3.59-10.804 6.5-24.13 6.5-13.325 0-24.13-2.91-24.13-6.5 0-3.586 10.805-6.495 24.13-6.495 13.329 0 24.13 2.909 24.13 6.495" fill="#bcbdbf"/></g><path d="m55.15 25.34c0-8.78-11.179-2.82-24.982-2.82-13.801 0-24.982-5.959-24.982 2.82 0 8.767 11.181 26.05 24.982 26.05 13.804.0001 24.982-17.282 24.982-26.05" fill="#e7e6e6"/><path d="m23.321 22.843c.072-.276.17-.485.26-.723-10.601-1.174-18.398-4.104-18.398 3.225 0 8.767 11.181 26.05 24.982 26.05 1.361 0 2.684-.213 3.985-.523-8.696-6.947-12.624-21.14-10.829-28.03" fill="#cfcfd0"/><path d="m54.998 24.421c0 5.377-11.12 9.733-24.831 9.733-13.716 0-24.833-4.356-24.833-9.733 0-5.372 11.12-9.727 24.833-9.727 13.714 0 24.831 4.355 24.831 9.727" fill="#bcbdbf"/><ellipse cx="30.17" cy="25.27" rx="24.21" ry="8.882" fill="#a87c51"/><path d="m38.07 22.418c5.321.808 10.767 2.072 16.202 3.65.062-.264.108-.528.108-.795 0-4.905-10.843-8.877-24.21-8.877-12.242 0-22.336 3.334-23.958 7.661 9.588-4.208 24.999-2.685 31.86-1.639" fill="#8a5f3d"/><path d="m63.988 34.28c.04-3.777.121-6.55-2.971-6.58-3.1-.034-11.8 2.948-11.839 6.733-.036 3.777 8.604 6.93 11.704 6.959 3.094.035 3.068-3.322 3.106-7.112m-12.789.209c.018-1.77 7.606-5.02 9.05-5 1.44.017 2.286 3.169 2.27 4.925-.017 1.77-.894 5.194-2.335 5.182-1.443-.018-8.999-3.348-8.983-5.105" fill="#e7e6e6"/><g fill="#fff"><path d="m9.256 25.27c0 0 .662-5.03 11.585-5.691 0 0-7.861 4.03-7.778 6.487 0 0-2.714 2.892-3.807-.796"/><path d="m51.761 27.16c0 0-.708 4.03-14.158 4.917 0 0 9.605-3.471 9.452-5.423 0 0 3.279-2.395 4.706.506"/><path d="m23.963 19.581c0 0 9.573-2.757 19.316 0l-3.03.961c0 0-5.267-3.547-16.283-.961"/></g><g fill="#a87c51"><path d="m21.913 10.849l.295.468c1.148 1.859 1.918 3.313 2.495 4.721.789 1.922.36 3.067-.71 4.509-.3.404-.345.91-.122 1.357.243.48.745.8 1.251.8.385 0 .729-.179.974-.506.911-1.221 1.546-2.331 1.689-3.777.17-1.701-.7-3.502-1.333-4.818-.721-1.482-1.6-2.907-2.448-4.286l-.204-.33c-1.25-2.029-1.808-3.618-.953-5.729.166-.415.123-.861-.124-1.223-.259-.385-.708-.625-1.174-.625-.511 0-.936.293-1.134.78-.493 1.225-.938 2.731-.47 4.628.364 1.47 1.181 2.772 1.968 4.03"/><path d="m27.385 10.17l.274.544c1.065 2.127 1.742 3.78 2.188 5.361.547 1.918.115 3.135-1.716 4.815-.428.391-.563.932-.364 1.446.223.57.804.961 1.421.965.361 0 .706-.136.987-.396 1.323-1.212 2.292-2.335 2.731-3.871.517-1.825-.219-3.87-.757-5.36-.608-1.683-1.421-3.316-2.208-4.896l-.188-.375c-1.153-2.318-1.543-4.094-.113-6.287.274-.421.302-.906.072-1.327-.255-.472-.808-.789-1.376-.789-.493 0-.934.238-1.206.655-.825 1.268-1.638 2.846-1.412 4.947.177 1.631.936 3.125 1.667 4.568"/><path d="m34.434 10.679c.538 1.461 1.204 3.401 1.565 5.422.385 2.183-.43 3.386-1.965 4.726-.447.391-.603.966-.4 1.501.206.553.744.94 1.311.94.327 0 .642-.123.906-.353 1.306-1.14 2.281-2.203 2.801-3.692.612-1.766.108-3.825-.26-5.329-.415-1.678-1.017-3.318-1.602-4.906l-.159-.436c-.872-2.37-1.083-4.154.408-6.272.307-.434.349-.942.117-1.391-.449-.864-1.812-1.015-2.401-.177-.853 1.208-1.719 2.725-1.685 4.809.032 1.621.602 3.137 1.155 4.603l.209.555"/></g><g fill="#8a5f3d"><path d="m25.365 21.903c-.226-.447-.181-.953.119-1.357 1.07-1.442 1.5-2.586.71-4.509-.579-1.407-1.349-2.862-2.497-4.721l-.293-.468c-.787-1.258-1.604-2.56-1.967-4.03-.468-1.897-.023-3.403.47-4.628.091-.228.236-.406.413-.54-.23-.149-.494-.24-.77-.24-.511 0-.936.293-1.134.78-.493 1.225-.938 2.731-.47 4.628.363 1.472 1.18 2.773 1.967 4.03l.295.468c1.148 1.859 1.918 3.313 2.495 4.721.789 1.922.36 3.067-.71 4.509-.3.404-.345.91-.122 1.357.243.48.745.8 1.251.8.268 0 .515-.089.723-.255-.199-.137-.369-.324-.48-.546"/><path d="m29.26 22.401c-.2-.515-.064-1.055.361-1.446 1.829-1.68 2.263-2.896 1.719-4.815-.451-1.582-1.125-3.236-2.191-5.363l-.276-.544c-.731-1.444-1.489-2.935-1.665-4.569-.228-2.101.587-3.679 1.412-4.947.125-.193.292-.345.479-.455-.232-.124-.494-.2-.764-.2-.493 0-.934.241-1.206.655-.825 1.268-1.638 2.846-1.412 4.947.177 1.634.936 3.125 1.667 4.569l.274.544c1.065 2.127 1.742 3.781 2.188 5.363.547 1.918.115 3.135-1.716 4.815-.428.392-.563.932-.364 1.446.223.566.804.961 1.421.961.259 0 .498-.089.721-.226-.286-.169-.527-.42-.648-.735"/><path d="m35.12 22.269c-.2-.54-.047-1.114.401-1.506 1.538-1.34 2.351-2.543 1.966-4.726-.359-2.02-1.027-3.961-1.567-5.422l-.209-.555c-.551-1.465-1.123-2.982-1.152-4.603-.034-2.084.831-3.601 1.685-4.809.106-.151.246-.262.394-.349-.601-.344-1.451-.268-1.885.349-.853 1.208-1.719 2.724-1.685 4.809.032 1.621.602 3.137 1.155 4.603l.208.555c.538 1.461 1.204 3.401 1.565 5.422.385 2.182-.43 3.386-1.965 4.726-.447.392-.603.966-.4 1.506.206.553.744.936 1.311.936.259 0 .506-.098.731-.247-.247-.166-.445-.404-.553-.689"/></g></g></svg>

<?xml version="1.0" encoding="UTF-8" standalone="no"?>
<!-- Generator: Adobe Illustrator 16.0.0, SVG Export Plug-In . SVG Version: 6.00 Build 0)  -->

<svg
   xmlns:dc="http://purl.org/dc/elements/1.1/"
   xmlns:cc="http://creativecommons.org/ns#"
   xmlns:rdf="http://www.w3.org/1999/02/22-rdf-syntax-ns#"
   xmlns:svg="http://www.w3.org/2000/svg"
   xmlns="http://www.w3.org/2000/svg"
   xmlns:sodipodi="http://sodipodi.sourceforge.net/DTD/sodipodi-0.dtd"
   xmlns:inkscape="http://www.inkscape.org/namespaces/inkscape"
   version="1.1"
   id="Layer_1"
   x="0px"
   y="0px"
   width="64px"
   height="64px"
   viewBox="0 0 64 64"
   enable-background="new 0 0 64 64"
   xml:space="preserve"
   inkscape:version="0.48.5 r10040"
   sodipodi:docname="2615.svg"
   inkscape:export-filename="D:\TESTINGEMOJI\SVGTEST\2615.png"
   inkscape:export-xdpi="90"
   inkscape:export-ydpi="90"><metadata
   id="metadata4111"><rdf:RDF><cc:Work
       rdf:about=""><dc:format>image/svg+xml</dc:format><dc:type
         rdf:resource="http://purl.org/dc/dcmitype/StillImage" /><dc:title></dc:title></cc:Work></rdf:RDF></metadata><defs
   id="defs4109" /><sodipodi:namedview
   pagecolor="#ffffff"
   bordercolor="#666666"
   borderopacity="1"
   objecttolerance="10"
   gridtolerance="10"
   guidetolerance="10"
   inkscape:pageopacity="0"
   inkscape:pageshadow="2"
   inkscape:window-width="640"
   inkscape:window-height="480"
   id="namedview4107"
   showgrid="false"
   inkscape:zoom="3.6875"
   inkscape:cx="32"
   inkscape:cy="32"
   inkscape:window-x="695"
   inkscape:window-y="346"
   inkscape:window-maximized="0"
   inkscape:current-layer="Layer_1" />
<g
   id="g4067"
   transform="translate(0,4)">
	<path
   d="m 63.501,35.184 c 0.041,-3.777 0.121,-6.551 -2.971,-6.581 -3.099,-0.034 -11.8,2.948 -11.838,6.734 -0.036,3.777 8.603,6.929 11.704,6.959 3.092,0.034 3.067,-3.322 3.105,-7.112 z m -12.788,0.208 c 0.017,-1.77 7.605,-5.015 9.047,-5.002 1.44,0.017 2.287,3.169 2.27,4.926 -0.017,1.77 -0.893,5.193 -2.335,5.181 -1.443,-0.018 -9,-3.349 -8.982,-5.105 z"
   id="path4069"
   inkscape:connector-curvature="0"
   style="fill:#bbbbbc" />
	<g
   id="g4071">
		<path
   d="m 60.328,50.118 c 0,4.487 -13.506,8.125 -30.165,8.125 C 13.505,58.243 0,54.605 0,50.118 c 0,-4.483 13.505,-8.12 30.163,-8.12 16.659,0 30.165,3.637 30.165,8.12 z"
   id="path4073"
   inkscape:connector-curvature="0"
   style="fill:#e7e6e6" />
		<path
   d="m 54.296,50.118 c 0,3.59 -10.804,6.5 -24.133,6.5 -13.325,0 -24.129,-2.91 -24.129,-6.5 0,-3.586 10.805,-6.495 24.129,-6.495 13.329,0 24.133,2.909 24.133,6.495 z"
   id="path4075"
   inkscape:connector-curvature="0"
   style="fill:#bcbdbf" />
	</g>
	<path
   d="m 55.147,25.34 c 0,-8.78 -11.179,-2.82 -24.982,-2.82 -13.801,0 -24.982,-5.959 -24.982,2.82 0,8.767 11.181,26.049 24.982,26.049 C 43.969,51.39 55.147,34.107 55.147,25.34 z"
   id="path4077"
   inkscape:connector-curvature="0"
   style="fill:#e7e6e6" />
	<path
   d="m 23.321,22.843 c 0.072,-0.276 0.17,-0.485 0.26,-0.723 C 12.98,20.946 5.183,18.016 5.183,25.345 c 0,8.767 11.181,26.05 24.982,26.05 1.361,0 2.684,-0.213 3.985,-0.523 C 25.454,43.925 21.526,29.734 23.321,22.843 z"
   id="path4079"
   inkscape:connector-curvature="0"
   style="fill:#cfcfd0" />
	<path
   d="m 54.998,24.421 c 0,5.377 -11.117,9.733 -24.831,9.733 -13.716,0 -24.833,-4.356 -24.833,-9.733 0,-5.372 11.117,-9.727 24.833,-9.727 13.714,0 24.831,4.355 24.831,9.727 z"
   id="path4081"
   inkscape:connector-curvature="0"
   style="fill:#bcbdbf" />
	<ellipse
   cx="30.167"
   cy="25.271999"
   rx="24.212"
   ry="8.882"
   id="ellipse4083"
   sodipodi:cx="30.167"
   sodipodi:cy="25.271999"
   sodipodi:rx="24.212"
   sodipodi:ry="8.882"
   style="fill:#a87c51"
   d="m 54.379,25.271999 c 0,4.905393 -10.840082,8.882 -24.212,8.882 -13.371918,0 -24.2120001,-3.976607 -24.2120001,-8.882 0,-4.905393 10.8400821,-8.882 24.2120001,-8.882 13.371918,0 24.212,3.976607 24.212,8.882 z" />
	<path
   d="m 38.068,22.418 c 5.321,0.808 10.767,2.072 16.202,3.65 0.062,-0.264 0.108,-0.528 0.108,-0.795 0,-4.905 -10.843,-8.877 -24.212,-8.877 -12.242,0 -22.336,3.334 -23.958,7.661 9.588,-4.208 24.999,-2.685 31.86,-1.639 z"
   id="path4085"
   inkscape:connector-curvature="0"
   style="fill:#8a5f3d" />
	<path
   d="m 63.988,34.281 c 0.04,-3.777 0.121,-6.55 -2.971,-6.58 -3.1,-0.034 -11.8,2.948 -11.839,6.733 -0.036,3.777 8.604,6.93 11.704,6.959 3.094,0.035 3.068,-3.322 3.106,-7.112 z M 51.199,34.49 c 0.018,-1.77 7.606,-5.015 9.048,-5.002 1.44,0.017 2.286,3.169 2.27,4.925 -0.017,1.77 -0.894,5.194 -2.335,5.182 -1.443,-0.018 -8.999,-3.348 -8.983,-5.105 z"
   id="path4087"
   inkscape:connector-curvature="0"
   style="fill:#e7e6e6" />
	<path
   d="m 9.256,25.272 c 0,0 0.662,-5.028 11.585,-5.691 0,0 -7.861,4.032 -7.778,6.487 0,0 -2.714,2.892 -3.807,-0.796 z"
   id="path4089"
   inkscape:connector-curvature="0"
   style="fill:#ffffff" />
	<path
   d="m 51.761,27.161 c 0,0 -0.708,4.032 -14.158,4.917 0,0 9.605,-3.471 9.452,-5.423 0,0 3.279,-2.395 4.706,0.506 z"
   id="path4091"
   inkscape:connector-curvature="0"
   style="fill:#ffffff" />
	<path
   d="m 23.963,19.581 c 0,0 9.573,-2.757 19.316,0 l -3.033,0.961 c 0,0 -5.267,-3.547 -16.283,-0.961 z"
   id="path4093"
   inkscape:connector-curvature="0"
   style="fill:#ffffff" />
	<path
   d="m 21.913,10.849 0.295,0.468 c 1.148,1.859 1.918,3.313 2.495,4.721 0.789,1.922 0.36,3.067 -0.71,4.509 -0.3,0.404 -0.345,0.91 -0.122,1.357 0.243,0.48 0.745,0.8 1.251,0.8 0.385,0 0.729,-0.179 0.974,-0.506 0.911,-1.221 1.546,-2.331 1.689,-3.777 0.17,-1.701 -0.7,-3.502 -1.333,-4.818 -0.721,-1.482 -1.6,-2.907 -2.448,-4.286 L 23.8,8.987 C 22.55,6.958 21.992,5.369 22.847,3.258 23.013,2.843 22.97,2.397 22.723,2.035 22.464,1.65 22.015,1.41 21.549,1.41 c -0.511,0 -0.936,0.293 -1.134,0.78 -0.493,1.225 -0.938,2.731 -0.47,4.628 0.364,1.47 1.181,2.772 1.968,4.031 z"
   id="path4095"
   inkscape:connector-curvature="0"
   style="fill:#a87c51" />
	<path
   d="m 27.385,10.17 0.274,0.544 c 1.065,2.127 1.742,3.78 2.188,5.361 0.547,1.918 0.115,3.135 -1.716,4.815 -0.428,0.391 -0.563,0.932 -0.364,1.446 0.223,0.57 0.804,0.961 1.421,0.965 0.361,0 0.706,-0.136 0.987,-0.396 1.323,-1.212 2.292,-2.335 2.731,-3.871 0.517,-1.825 -0.219,-3.87 -0.757,-5.36 -0.608,-1.683 -1.421,-3.316 -2.208,-4.896 L 29.753,8.403 C 28.6,6.085 28.21,4.309 29.64,2.116 29.914,1.695 29.942,1.21 29.712,0.789 29.457,0.317 28.904,0 28.336,0 27.843,0 27.402,0.238 27.13,0.655 c -0.825,1.268 -1.638,2.846 -1.412,4.947 0.177,1.631 0.936,3.125 1.667,4.568 z"
   id="path4097"
   inkscape:connector-curvature="0"
   style="fill:#a87c51" />
	<path
   d="m 34.434,10.679 c 0.538,1.461 1.204,3.401 1.565,5.422 0.385,2.183 -0.43,3.386 -1.965,4.726 -0.447,0.391 -0.603,0.966 -0.4,1.501 0.206,0.553 0.744,0.94 1.311,0.94 0.327,0 0.642,-0.123 0.906,-0.353 1.306,-1.14 2.281,-2.203 2.801,-3.692 0.612,-1.766 0.108,-3.825 -0.26,-5.329 C 37.977,12.216 37.375,10.576 36.79,8.988 L 36.631,8.552 C 35.759,6.182 35.548,4.398 37.039,2.28 37.346,1.846 37.388,1.338 37.156,0.889 36.707,0.025 35.344,-0.126 34.755,0.712 33.902,1.92 33.036,3.437 33.07,5.521 c 0.032,1.621 0.602,3.137 1.155,4.603 l 0.209,0.555 z"
   id="path4099"
   inkscape:connector-curvature="0"
   style="fill:#a87c51" />
	<path
   d="m 25.365,21.903 c -0.226,-0.447 -0.181,-0.953 0.119,-1.357 1.07,-1.442 1.5,-2.586 0.71,-4.509 -0.579,-1.407 -1.349,-2.862 -2.497,-4.721 L 23.404,10.848 C 22.617,9.59 21.8,8.288 21.437,6.816 20.969,4.919 21.414,3.413 21.907,2.188 21.998,1.96 22.143,1.782 22.32,1.648 22.09,1.499 21.826,1.408 21.55,1.408 c -0.511,0 -0.936,0.293 -1.134,0.78 -0.493,1.225 -0.938,2.731 -0.47,4.628 0.363,1.472 1.18,2.773 1.967,4.033 l 0.295,0.468 c 1.148,1.859 1.918,3.313 2.495,4.721 0.789,1.922 0.36,3.067 -0.71,4.509 -0.3,0.404 -0.345,0.91 -0.122,1.357 0.243,0.48 0.745,0.8 1.251,0.8 0.268,0 0.515,-0.089 0.723,-0.255 -0.199,-0.137 -0.369,-0.324 -0.48,-0.546 z"
   id="path4101"
   inkscape:connector-curvature="0"
   style="fill:#8a5f3d" />
	<path
   d="m 29.261,22.401 c -0.2,-0.515 -0.064,-1.055 0.361,-1.446 1.829,-1.68 2.263,-2.896 1.719,-4.815 C 30.89,14.558 30.216,12.904 29.15,10.777 L 28.874,10.233 C 28.143,8.789 27.385,7.298 27.209,5.664 26.981,3.563 27.796,1.985 28.621,0.717 28.746,0.524 28.913,0.372 29.1,0.262 c -0.232,-0.124 -0.494,-0.2 -0.764,-0.2 -0.493,0 -0.934,0.241 -1.206,0.655 -0.825,1.268 -1.638,2.846 -1.412,4.947 0.177,1.634 0.936,3.125 1.667,4.569 l 0.274,0.544 c 1.065,2.127 1.742,3.781 2.188,5.363 0.547,1.918 0.115,3.135 -1.716,4.815 -0.428,0.392 -0.563,0.932 -0.364,1.446 0.223,0.566 0.804,0.961 1.421,0.961 0.259,0 0.498,-0.089 0.721,-0.226 -0.286,-0.169 -0.527,-0.42 -0.648,-0.735 z"
   id="path4103"
   inkscape:connector-curvature="0"
   style="fill:#8a5f3d" />
	<path
   d="m 35.123,22.269 c -0.2,-0.54 -0.047,-1.114 0.401,-1.506 1.538,-1.34 2.351,-2.543 1.966,-4.726 -0.359,-2.021 -1.027,-3.961 -1.567,-5.422 L 35.714,10.06 C 35.163,8.595 34.591,7.078 34.562,5.457 34.528,3.373 35.393,1.856 36.247,0.648 36.353,0.497 36.493,0.386 36.641,0.299 36.04,-0.045 35.19,0.031 34.756,0.648 c -0.853,1.208 -1.719,2.724 -1.685,4.809 0.032,1.621 0.602,3.137 1.155,4.603 l 0.208,0.555 c 0.538,1.461 1.204,3.401 1.565,5.422 0.385,2.182 -0.43,3.386 -1.965,4.726 -0.447,0.392 -0.603,0.966 -0.4,1.506 0.206,0.553 0.744,0.936 1.311,0.936 0.259,0 0.506,-0.098 0.731,-0.247 -0.247,-0.166 -0.445,-0.404 -0.553,-0.689 z"
   id="path4105"
   inkscape:connector-curvature="0"
   style="fill:#8a5f3d" />
</g>
</svg>
